!!!COM: Grieg, Edvard
!!!CDT: 1843/06/15/-1907/09/04/
!!!OPR: Peer Gynt Suite No. 1 (piano transcription)
!!!OPS: Op. 46
!!!ONM: No. 4
!!!OTL@EN: In the Hall of the Mountain King
!!!OTL@DE: In der Halle des Bergk&ouml;nigs
!!!OMD: Alla marcia e molto marcato
**kern	**kern	**dynam
*staff2	*staff1	*staff1
*clefF4	*clefF4	*clefF4
*k[f#c#]	*k[f#c#]	*k[f#c#]
*met(C)	*met(C)	*met(C)
*M4/4	*M4/4	*M4/4
*MM138	*MM138	*MM138
=1-	=1-	=1-
1r	1F#^; 1f#^;	p
=2	=2	=2
4BBBB'/	8BBB'/L	pp
.	8CC#'/	.
4FFF#'/	8DD'/	.
.	8EE'/J	.
4BBBB'/	8FF#'^/L	.
.	8DD'/J	.
4FFF#'/	4FF#'/	.
=3	=3	=3
4BBBB'/	8EE#'^/L	.
.	8CC#'/J	.
4FFF#'/	4EE#'/	.
4BBBB'/	8EEn'^/L	.
.	8CCn'/J	.
4FFF#'/	4EE'/	.
=4	=4	=4
4BBBB'/	8BBB'/L	.
.	8CC#'/	.
4FFF#'/	8DD'/	.
.	8EE'/J	.
4BBBB'/	8FF#'/L	.
.	8DD'/	.
4FFF#'/	8FF#'/	.
.	8BB'/J	.
=5	=5	=5
4DDD'/	8AA'/L	.
.	8FF#'/	.
4AAA'/	8DD'/	.
.	8FF#'/J	.
4DDD'/	2AA^/	.
4AAA'/	.	.
=6	=6	=6
4BBBB'/	8BB'/L	.
.	8C#'/	.
4FFF#'/	8D'/	.
.	8E'/J	.
4BBBB'/	8F#'^\L	.
.	8D'\J	.
4FFF#'/	4F#'\	.
=7	=7	=7
4BBBB'/	8E#'^\L	.
.	8C#'\J	.
4FFF#'/	4E#'\	.
4BBBB'/	8En'^\L	.
.	8Cn'\J	.
4FFF#'/	4E'\	.
=8	=8	=8
4BBBB'/	8BB'/L	.
.	8C#'/	.
4FFF#'/	8D'/	.
.	8E'/J	.
4BBBB'/	8F#'\L	.
.	8D'\	.
4FFF#'/	8F#'\	.
.	8B'\J	.
=9	=9	=9
4DDD'/	8A'\L	.
.	8F#'\	.
4AAA'/	8D'\	.
.	8F#'\J	.
4DDD'/	2AA^\ 2A^\	.
4AAA'/	.	.
=10	=10	=10
4FFF#'/	8FF#'/L	.
.	8GG#'/	.
4CC#'/	8AA#'/	.
.	8BB'/J	.
4FFF#'/	8C#'^/L	.
.	8AA#'/J	.
4CC#'/	4C#'/	.
=11	=11	=11
4DDD'/	8D'^/L	.
.	8AA#'/J	.
4AAA#'/	4D'\	.
4FFF#'/	8C#'^/L	.
.	8AA#'/J	.
4CC#'/	4C#'/	.
=12	=12	=12
4FFF#'/	8FF#'/L	.
.	8GG#'/	.
4CC#'/	8AA#'/	.
.	8BB'/J	.
4FFF#'/	8C#'^/L	.
.	8AA#'/J	.
4CC#'/	4C#'/	.
=13	=13	=13
4DDD'/	8D'^/L	.
.	8AA#'/J	.
4AAA#'/	4D'\	.
4FFF#'/	2C#^/	.
4CC#'/	.	.
=14	=14	=14
4FFF#'/	8F#'\L	.
.	8G#'\	.
4CC#'/	8A#'\	.
.	8B'\J	.
4FFF#'/	8c#'^\L	.
.	8A#'\J	.
4CC#'/	4c#'\	.
=15	=15	=15
4DDD'/	8d'^\L	.
.	8A#'\J	.
4AAA#'/	4d'\	.
4FFF#'/	8c#'^\L	.
.	8A#'\J	.
4CC#'/	4c#'\	.
=16	=16	=16
4FFF#'/	8F#'\L	.
.	8G#'\	.
4CC#'/	8A#'\	.
.	8B'\J	.
4FFF#'/	8c#'^\L	.
.	8A#'\J	.
4CC#'/	4c#'\	.
=17	=17	=17
4DDD'/	8d'^\L	.
.	8A#'\J	.
4AAA#'/	4d'\	.
4FFF#'/	2C#^\ 2c#^\	.
4CC#'/	.	.
=18	=18	=18
4BBBB'/	8BBB'/L	.
.	8CC#'/	.
4FFF#'/	8DD'/	.
.	8EE'/J	.
4BBBB'/	8FF#'^/L	.
.	8DD'/J	.
4FFF#'/	4FF#'/	.
=19	=19	=19
4BBBB'/	8EE#'^/L	.
.	8CC#'/J	.
4FFF#'/	4EE#'/	.
4BBBB'/	8EEn'^/L	.
.	8CCn'/J	.
4FFF#'/	4EE'/	.
=20	=20	=20
4BBBB'/	8BBB'/L	.
.	8CC#'/	.
4FFF#'/	8DD'/	.
.	8EE'/J	.
4BBBB'/	8FF#'/L	.
.	8DD'/	.
4FFF#'/	8FF#'/	.
.	8BB'/J	.
=21	=21	=21
4DDD'/	8AA'/L	.
.	8FF#'/	.
4AAA'/	8DD'/	.
.	8FF#'/J	.
4DDD'/	2AA^/	.
4AAA'/	.	.
=22	=22	=22
4BBBB'/	8BB'/L	.
.	8C#'/	.
4FFF#'/	8D'/	.
.	8E'/J	.
4BBBB'/	8F#'^\L	.
.	8D'\J	.
4FFF#'/	4F#'\	.
=23	=23	=23
4BBBB'/	8E#'^\L	.
.	8C#'\J	.
4FFF#'/	4E#'\	.
4BBBB'/	8En'^\L	.
.	8Cn'\J	.
4FFF#'/	4E'\	.
=24	=24	=24
4BBBB'/	8BB'/L	.
.	8C#'/	.
4BBB'/	8D'/	.
.	8E'/J	.
4AAA'/	8F#'\L	.
.	8D'\	.
4GGG'/	8F#'\	.
.	8B'\J	.
=25	=25	=25
4FFF#'/	8F#'\L	.
.	8D'\	.
4EEE'/	8F#'\	.
.	8B'\J	.
4DDD'/	2BB^/	.
4CCC#'/	.	.
*	*clefG2	*clefG2
=26	=26	=26
4BBBB'/	8B/L	p
.	8c#'/	.
(16FF#/ 16D/LL	8F#'/ 8d'/	.
16EE#/J	.	.
8FF#/J)	8e'/J	.
4BBB'/	8f#'^/L	.
.	8d'/J	.
(16FF#/ 16D/LL	4F#'/ 4f#'/	.
16EE#/J	.	.
8FF#/J)	.	.
=27	=27	=27
4BBB'/	8e#'^/L	.
.	8c#'/J	.
(16FF#/ 16C#/LL	4F#/ 4e#/	.
16EE#/J	.	.
8FF#/J)	.	.
4BBB'/	8en'^/L	.
.	8cn'/J	.
(16FF#/ 16Cn/LL	4F#'/ 4e'/	.
16EE#/J	.	.
8FF#/J)	.	.
=28	=28	=28
4BBB'/	8B'/L	.
.	8c#/	.
(16FF#/ 16D/LL	8F#'/ 8d'/	.
16EE#/J	.	.
8FF#/J)	8e'/J	.
4BBB'/	8f#'/L	.
.	8d'/	.
(16FF#/ 16D/LL	8f#'/	.
16EE#/J	.	.
8FF#/J)	8b'/J	.
=29	=29	=29
*	*^	*
4DD'/	2r	8a'/L	.
.	.	8f#'/	.
(16AA/ 16F#/LL	.	8A'/ 8d'/	.
16GG#/J	.	.	.
8AA/J)	.	8f#'/J	.
4DD'/	2a^/	4r	.
(16AA/ 16F#/LL	.	4A\ 4d\	.
16GG#/J	.	.	.
8AA/J)	.	.	.
=30	=30	=30	=30
4BBB'/	8b/L	4r	.
.	8cc#'/	.	.
(16FF#/ 16D/LL	8dd'/	4f#\	.
16EE#/J	.	.	.
8FF#/J)	8ee'/J	.	.
4BBB'/	8ff#'^/L	4r	.
.	8dd'/J	.	.
(16FF#/ 16D/LL	4ff#'/	4f#\	.
16EE#/J	.	.	.
8FF#/J)	.	.	.
=31	=31	=31	=31
4BBB'/	8ee#'^/L	4r	.
.	8cc#'/J	.	.
(16FF#/ 16C#/LL	4ee#/	4f#\	.
16EE#/J	.	.	.
8FF#/J)	.	.	.
4BBB'/	8een'^/L	4r	.
.	8ccn'/J	.	.
(16FF#/ 16Cn/LL	4ee/	4f#\	.
16EE#/J	.	.	.
8FF#/J)	.	.	.
=32	=32	=32	=32
4BBB'/	8b'/L	4r	.
.	8cc#'/	.	.
(16FF#/ 16D/LL	8dd'/	4f#\	.
16EE#/J	.	.	.
8FF#/J)	8ee'/J	.	.
4BBB'/	8ff#'/L	2r	.
.	8dd'/	.	.
(16FF#/ 16D/LL	8ff#'/	.	.
16EE#/J	.	.	.
8FF#/J)	8bb'/J	.	.
=33	=33	=33	=33
4DD'/	8aa'/L	4r	.
.	8ff#'/	.	.
(16AA/ 16F#/LL	8dd'/	4a\	.
16GG#/J	.	.	.
8AA/J)	8ff#'/J	.	.
4DD'/	2aa^/	4r	.
(16AA/ 16F#/LL	.	4a\ 4dd\	.
16GG#/J	.	.	.
8AA/J)	.	.	.
=34	=34	=34	=34
4FF#'/	8f#'/L	4r	.
.	8g#'/	.	.
16C#\ (16A#\LL	8a#'/	4f#\	<
16BB#\J	.	.	.
8C#\J)	8bn'/J	.	.
4FF#'/	8cc#^/L	4r	.
.	8a#'/J	.	.
16C#\ (16A#\LL	4cc#'/	4f#\ 4a#\	.
16BB#\J	.	.	.
8C#\J)	.	.	.
=35	=35	=35	=35
4DD'^/	8dd'^/L	4r	.
.	8a#'/J	.	.
16D\ (16A#\LL	4dd'/	4f#\ 4a#\	.
16C#\J	.	.	.
8D\J)	.	.	.
4FF#'/	8cc#'^/L	4r	.
.	8a#'/J	.	.
16C#\ (16A#\LL	4cc#/	4f#\ 4a#\	.
16BB#\J	.	.	.
8C#\J)	.	.	.
=36	=36	=36	=36
4FF#'/	8f#'/L	4r	.
.	8g#'/	.	.
16C#\ (16A#\LL	8a#'/	4f#\	.
16BB#\J	.	.	.
8C#\J)	8b'/J	.	.
4FF#'/	8cc#'^/L	4r	.
.	8a#'/J	.	.
16C#\ (16A#\LL	4cc#/	4f#\ 4a#\	.
16BB#\J	.	.	.
8C#\J)	.	.	.
=37	=37	=37	=37
4DD'^/	8dd^/L	4r	.
.	8a#'/J	.	.
16D\ (16A#\LL	4dd/	4f#\ 4a#\	.
16C#\J	.	.	.
8D\J)	.	.	.
4FF#'/	2cc#^/	4r	.
16C#\ (16A#\LL	.	4f#\ 4a#\	.
16BB#\J	.	.	.
8C#\J)	.	.	.
*	*v	*v	*
=38	=38	=38
4FF#'/	8ff#'\L	.
.	8gg#'\	.
16C#\ (16A#\LL	8ff#'\ 8aa#'\	.
16BB#\J	.	.
8C#\J)	8bbn'\J	.
4FF#'/	8ccc#'^\L	.
.	8aa#'\J	.
16C#\ (16A#\LL	4ff#'\ 4aa#'\ 4ccc#'\	.
16BB#\J	.	.
8C#\J)	.	.
=39	=39	=39
4DD'^/	8ddd'^\L	.
.	8aa#'\J	.
16D\ (16A#\LL	4ff#'\ 4aa#'\ 4ddd'\	.
16C#\J	.	.
8D\J)	.	.
4FF#'/	8ccc#'\L	.
.	8aa#'\J	.
16C#\ (16A#\LL	4ff#'\ 4aa#'\ 4ccc#'\	.
16BB#\J	.	.
8C#\J)	.	.
=40	=40	=40
4FF#'/	8ff#'\L	.
.	8gg#'\	.
16C#\ (16A#\LL	8ff#'\ 8aa#'\	.
16BB#\J	.	.
8C#\J)	8bb'\J	.
4FF#'/	8ccc#'^\L	.
.	8aa#'\J	.
16C#\ (16A#\LL	4ff#'\ 4aa#'\ 4ccc#'\	.
16BB#\J	.	.
8C#\J)	.	.
=41	=41	=41
*	*^	*
4DD'^/	2r	8ddd'^\L	.
.	.	8aa#'\J	.
16D\ (16A#\LL	.	4ff#'\ 4aa#'\ 4ddd'\	.
16C#\J	.	.	.
8D\J)	.	.	.
4FF#'/	2ccc#/	4r	.
16C#\ (16A#\LL	.	4ff#\ 4aa#\	.
16BB#\J	.	.	.
8C#\J)	.	.	.
*	*v	*v	*
=42	=42	=42
12BBB/L	8B'/L	mf
12EE#/	.	.
.	8c#'/	<
12FF#/	.	.
12D/	8F#'/ 8d'/	.
12EE#/	.	.
.	8en'/J	.
12FF#/J	.	.
12BBB/L	8f#'^/L	.
12EE#/	.	.
.	8d'/J	.
12FF#/	.	.
12D/	4F#'/ 4f#'/	.
12EE#/	.	.
12FF#/J	.	.
=43	=43	=43
12BBB/L	8e#'^/L	.
12EE#/	.	.
.	8c#'/J	.
12FF#/	.	.
12C#/	4F#'/ 4e#'/	.
12EE#/	.	.
12FF#/J	.	.
12BBB/L	8en'^/L	.
12EE#/	.	.
.	8cn'/J	.
12FF#/	.	.
12Cn/	4F#'/ 4e'/	.
12EE#/	.	.
12FF#/J	.	.
=44	=44	=44
12BBB/L	8B'/L	.
12EE#/	.	.
.	8c#'/	.
12FF#/	.	.
12D/	8F#'/ 8d'/	.
12EE#/	.	.
.	8en'/J	.
12FF#/J	.	.
12BBB/L	8f#'/L	.
12EE#/	.	.
.	8d'/	.
12FF#/	.	.
12D/	8B'/ 8f#'/	.
12EE#/	.	.
.	8b'/J	.
12FF#/J	.	.
=45	=45	=45
*	*^	*
12DD/L	2r	8a'/L	.
12GG#/	.	.	.
.	.	8f#'/	.
12AA/	.	.	.
12F#/	.	8A'/ 8d'/	.
12GG#/	.	.	.
.	.	8f#'/J	.
12AA/J	.	.	.
12DD/L	2a^/	4r	.
12GG#/	.	.	.
12AA/	.	.	.
12F#/	.	4A\ 4d\	.
12GG#/	.	.	.
12AA/J	.	.	.
=46	=46	=46	=46
12BBB/L	8b/L	4r	.
12EE#/	.	.	.
.	8cc#'/	.	.
12FF#/	.	.	.
12D/	8dd'/	4f#\	.
12EE#/	.	.	.
.	8een'/J	.	.
12FF#/J	.	.	.
12BBB/L	8ff#'^/L	4r	.
12EE#/	.	.	.
.	8dd'/J	.	.
12FF#/	.	.	.
12D/	4ff#/	4f#\	.
12EE#/	.	.	.
12FF#/J	.	.	.
=47	=47	=47	=47
12BBB/L	8ee#'^/L	4r	.
12EE#/	.	.	.
.	8cc#'/J	.	.
12FF#/	.	.	.
12C#/	4ee#/	4f#\	.
12EE#/	.	.	.
12FF#/J	.	.	.
12BBB/L	8een'^/L	4r	.
12EE#/	.	.	.
.	8ccn'/J	.	.
12FF#/	.	.	.
12Cn/	4ee'/	4f#\	.
12EE#/	.	.	.
12FF#/J	.	.	.
=48	=48	=48	=48
12BBB/L	8b'/L	2r	.
12EE#/	.	.	.
.	8cc#'/	.	.
12FF#/J	.	.	.
4BB'\ 4B'\	8dd/	.	.
.	8ee'/J	.	.
4AAn'\ 4BB'\ 4An'\	8ff#'/L	4r	.
.	8dd''/	.	.
4GG'/ 4BB'/ 4G'/	8ff#'/	4b\ 4dd\	.
.	8bb'/J	.	.
=49	=49	=49	=49
4FF#/ 4BB/ 4F#/	8ff#'/L	4r	.
.	8dd''/	.	.
4EE^/ 4BB^/ 4E^/	8ff#/	4b\ 4dd\	.
.	8bb''/J	.	.
4DD^/ 4BB^/ 4D^/	2b^/	2r	.
4CC#^/ 4BB^/ 4C#^/	.	.	.
=50	=50	=50	=50
8BBB^/ 8BB^/L	8b'^/L	2b\	ff
8AA'/	8cc#'/	.	.
8GG'/	8dd'/	.	.
8FF#/J	8ee'/J	.	.
8BBB^/ 8BB^/L	8ff#^/L	2b\	.
8AA'/	8dd'/J	.	.
8GG'/	4ff#'/	.	.
8FF#'/J	.	.	.
=51	=51	=51	=51
8BBB^/ 8BB^/L	8ee#^/L	2b\	.
8AA'/	8cc#'/J	.	.
8GG'/	4ee#'/	.	.
8FF#'/J	.	.	.
8BBB^/ 8BB^/L	8een^/L	2b\	.
8AA'/	8ccn'/J	.	.
8GG'/	4ee'/	.	.
8FF#'/J	.	.	.
=52	=52	=52	=52
8BBB^/ 8BB^/L	8b'/L	2b\	.
8AA'/	8cc#'/	.	.
8GG'/	8dd'/	.	.
8FF#'/J	8ee'/J	.	.
8BBB^/ 8BB^/L	8ff#/L	2b\	.
8AA'/	8dd'/	.	.
8GG'/	8ff#'/	.	.
8FF#'/J	8bb'/J	.	.
=53	=53	=53	=53
8DD^/ 8D^/L	8aa'/L	2a\ 2dd\	.
8C#'/	8ff#'/	.	.
8BB'/	8dd'/	.	.
8AA'/J	8ff#'/J	.	.
8DD^/ 8D^/L	2aa^/	2a\ 2dd\	.
8C#'/	.	.	.
8BB'/	.	.	.
8AA'/J	.	.	.
=54	=54	=54	=54
8BBB^/ 8BB^/L	8b'^/L	2b'\	.
8AA'/	8cc#'/	.	.
8GG'/	8dd'/	.	.
8FF#'/J	8ee'/J	.	.
8BBB^/ 8BB^/L	8ff#^/L	2b\	.
8AA'/	8dd'/J	.	.
8GG'/	4ff#'/	.	.
8FF#'/J	.	.	.
=55	=55	=55	=55
8BBB^/ 8BB^/L	8ee#^/L	2b\	.
8AA'/	8cc#'/J	.	.
8GG'/	4ee#'/	.	.
8FF#'/J	.	.	.
8BBB^/ 8BB^/L	8een^/L	2b\	.
8AA'/	8ccn'/J	.	.
8GG'/	4ee'/	.	.
8FF#'/J	.	.	.
=56	=56	=56	=56
8BBB^/ 8BB^/L	8b'/L	2b\	.
8AA'/	8cc#/	.	.
8GG'/	8dd'/	.	.
8FF#'/J	8ee/J	.	.
8BBB^/ 8BB^/L	8ff#'/L	2b\	.
8AA'/	8dd'/	.	.
8GG'/	8ff#'/	.	.
8FF#'/J	8bb'/J	.	.
=57	=57	=57	=57
8DD^/ 8D^/L	8aa'/L	2a\ 2dd\	.
8C#'/	8ff#'/	.	.
8BB'/	8dd/	.	.
8AA'/J	8ff#'/J	.	.
8DD^/ 8D^/L	2aa^/	2a\ 2dd\	.
8C#'/	.	.	.
8BB'/	.	.	.
8AA'/J	.	.	.
=58	=58	=58	=58
8FF#^/ 8F#^/L	8ff#'/L	2ff#\	.
8E'/	8gg#'/	.	.
8D'/	8aa#/	.	.
8C#'/J	8bb/J	.	.
8FF#^/ 8F#^/L	8ccc#^/L	4cc#\ 4ff#\	.
8E'/	8aa#/J	.	.
8D'/	4ccc#^/	4cc#\ 4ff#\	.
8C#'/J	.	.	.
*	*v	*v	*
=59	=59	=59
8DD^/ 8D^/L	8dd^\ 8ff#^\ 8ddd^\L	.
8C#'/	8aa#'\J	.
8D'/	4dd^\ 4ff#^\ 4ddd^\	.
8E'/J	.	.
8FF#^/ 8F#^/L	8cc#^\ 8ff#^\ 8ccc#^\L	.
8E'/	8aa#'\J	.
8D'/	4cc#^\ 4ff#^\ 4ccc#^\	.
8C#'/J	.	.
=60	=60	=60
8FF#^/ 8F#^/L	8ff#'\L	.
8E'/	8ff#'\ 8gg#'\	.
8D'/	8ff#'\ 8aa#'\	.
8C#'/J	8ff#'\ 8bb'\J	.
8FF#^/ 8F#^/L	8cc#^\ 8ff#^\ 8ccc#^\L	.
8E'/	8cc#'\ 8ff#'\ 8aa#'\J	.
8D'/	4cc#^\ 4ff#^\ 4ccc#^\	.
8C#'/J	.	.
=61	=61	=61
8DD^/ 8D^/L	8dd^\ 8ff#^\ 8ddd^\L	.
8C#'/	8dd'\ 8ff#'\ 8aa#'\J	.
8D'/	4dd^\ 4ff#^\ 4ddd^\	.
8E'/J	.	.
8FF#^/ 8F#^/L	2cc#^\ 2ff#^\ 2ccc#^\	.
8E'/	.	.
8D'/	.	.
8C#'/J	.	.
=62	=62	=62
*	*^	*
8FF#^/ 8F#^/L	8ff#'/L	2ff#\	.
8E#'/	8gg#'/	.	.
8D#'/	8aa#'/	.	.
8C#'/J	8bb'/J	.	.
8FF#^/ 8F#^/L	8ccc#^/L	4cc#\ 4ff#\	.
8E#'/	8aa#'/J	.	.
8D#'/	4ccc#^/	4cc#\ 4ff#\	.
8C#'/J	.	.	.
*	*v	*v	*
=63	=63	=63
8DD#^/ 8D#^/L	8dd#^\ 8ff#^\ 8ddd#^\L	.
8C#'/	8aa#'\J	.
8D#'/	4dd#^\ 4ff#^\ 4ddd#^\	.
8E#'/J	.	.
8FF#^/ 8F#^/L	8cc#^\ 8ff#^\ 8ccc#^\L	.
8E#'/	8aa#'\J	.
8D#'/	4cc#^\ 4ff#^\ 4ccc#^\	.
8C#'/J	.	.
=64	=64	=64
8FF#^/ 8F#^/L	8ff#'\L	.
8E#'/	8ff#'\ 8gg#'\	.
8D#'/	8ff#'\ 8aa#'\	.
8C#'/J	8ff#'\ 8bb'\J	.
8FF#^/ 8F#^/L	8cc#^\ 8ff#^\ 8ccc#^\L	.
8E#'/	8cc#'\ 8ff#'\ 8aa#'\J	.
8D#'/	4cc#^\ 4ff#^\ 4ccc#^\	.
8C#'/J	.	.
=65	=65	=65
8DD#^/ 8D#^/L	8dd#^\ 8ff#^\ 8ddd#^\L	.
8C#'/	8dd#'\ 8ff#'\ 8aa#'\J	.
8D#'/	4dd#^\ 4ff#^\ 4ddd#^\	.
8E#'/J	.	.
8FF#^/ 8F#^/L	2cc#^\ 2ff#^\ 2ccc#^\	.
8E#'/	.	.
8D#'/	.	.
8C#'/J	.	.
=66	=66	=66
*	*^	*
8BBB^/ 8BB^/L	8b'/L	2b\	.
8AA'/	8cc#'/	.	.
8GG'/	8ddn'/	.	.
8FF#'/J	8ee'/J	.	.
8BBB^/ 8BB^/L	8ff#^/L	2b\	.
8AA'/	8dd'/J	.	.
8GG'/	4ff#'/	.	.
8FF#'/J	.	.	.
=67	=67	=67	=67
8BBB^/ 8BB^/L	8ee#^/L	2b\	.
8AA'/	8cc#'/J	.	.
8GG'/	4ee#'/	.	.
8FF#'/J	.	.	.
8BBB^/ 8BB^/L	8een^/L	2b\	.
8AA'/	8ccn'/J	.	.
8GG'/	4ee'/	.	.
8FF#'/J	.	.	.
=68	=68	=68	=68
8BBB^/ 8BB^/L	8b'/L	2b\	.
8AA'/	8cc#'/	.	.
8GG'/	8dd'/	.	.
8FF#'/J	8ee'/J	.	.
8BBB^/ 8BB^/L	8ff#/L	2b\	.
8AA'/	8dd'/	.	.
8GG'/	8ff#'/	.	.
8FF#'/J	8bb'/J	.	.
=69	=69	=69	=69
8DD^/ 8D^/L	8aa'/L	2a\ 2dd\	.
8C#'/	8ff#'/	.	.
8BB'/	8dd'/	.	.
8AA'/J	8ff#'/J	.	.
8DD^/ 8D^/L	2aa^/	2a\ 2dd\	.
8C#'/	.	.	.
8BB'/	.	.	.
8AA'/J	.	.	.
*	*v	*v	*
=70	=70	=70
8BBB^/ 8BB^/L	8b'\L	.
8AA'/	8b'\ 8cc#'\	.
8GG'/	8b'\ 8dd'\	.
8FF#'/J	8b'\ 8ee'\J	.
8BBB^/ 8BB^/L	8b^\ 8ff#^\L	.
8AA'/	8b'\ 8dd'\J	.
8GG'/	4b'\ 4dd'\ 4ff#'\	.
8FF#'/J	.	.
=71	=71	=71
8BBB^/ 8BB^/L	8b^\ 8ee#^\L	.
8AA'/	8b\ 8cc#\J	.
8GG'/	4b'\ 4cc#'\ 4ee#'\	.
8FF#'/J	.	.
8BBB^/ 8BB^/L	8b^\ 8een^\L	.
8AA'/	8b\ 8ccn\J	.
8GG'/	4b'\ 4cc'\ 4ee'\	.
8FF#'/J	.	.
=72	=72	=72
8BBB^/ 8BB^/L	8b'\L	.
8AA'/	8b'\ 8cc#'\	.
8GG'/	8b'\ 8dd'\	.
8FF#'/J	8b'\ 8ee'\J	.
8BBB^/ 8BB^/L	8b'\ 8ff#'\L	.
8AA'/	8b'\ 8dd'\	.
8GG'/	8b'\ 8ff#'\	.
8FF#'/J	8b'\ 8bb'\J	.
=73	=73	=73
8BBB^/ 8BB^/L	8b'\ 8ff#'\L	.
8AA'/	8b'\ 8dd'\	.
8GG'/	8b'\ 8ff#'\	.
8FF#'/J	8b'\ 8bb'\J	.
8BBB^/ 8BB^/L	2b^\	.
8AA'/	.	.
8GG'/	.	.
8FF#'/J	.	.
=74	=74	=74
4BBB^/ 4BB^/	4r	.
.	(gg#q/LL	.
.	aanq/	.
.	aa#q/JJ	.
4D'\ 4E#'\ 4G#'\ 4B'\	4dd'\ 4bb'\)	.
2r	2r	.
=75	=75	=75
4BBB^/ 4BB^/	4r	.
.	(gg#q/LL	.
.	aanq/	.
.	aa#q/JJ	.
4D'\ 4F#'\ 4B'\	4dd'\ 4bb'\)	.
2r	2r	.
=76	=76	=76
4GGn^/ 4Gn^/	8b'\L	.
.	8cc#'\	.
4D\ 4G\ 4B\	8dd'\	.
.	8ee'\J	.
4FF#^/ 4F#^/	8ff#'\L	.
.	8dd'\	.
4D\ 4F#\ 4B\	8ff#'\	.
.	8bb'\J	.
=77	=77	=77
4FFF#^/ 4FF#^/	8aa#'\L	.
.	8ff#'\	.
4C#\ 4F#\ 4A#\	8aa#'\	.
.	8ccc#'\J	.
4BBB^/ 4BB^/	2bb^\	.
4D\ 4F#\ 4B\	.	.
=78	=78	=78
4BBB^/ 4BB^/	4r	.
.	(gg#q/LL	.
.	aanq/	.
.	aa#q/JJ	.
4D'\ 4E#'\ 4G#'\ 4B'\	4dd'\ 4bb'\)	.
2r	2r	.
=79	=79	=79
4BBB^/ 4BB^/	4r	.
.	(gg#q/LL	.
.	aanq/	.
.	aa#q/JJ	.
4D'\ 4F#'\ 4B'\	4dd'\ 4bb'\)	.
2r	2r	.
=80	=80	=80
4GGn^/ 4Gn^/	8b'\L	.
.	8cc#'\	.
4D\ 4G\ 4B\	8dd'\	.
.	8ee'\J	.
4FF#^/ 4F#^/	8ff#'\L	.
.	8dd'\	.
4D\ 4F#\ 4B\	8ff#'\	.
.	8bb'\J	.
=81	=81	=81
4FFF#^/ 4FF#^/	8aa#'\L	.
.	8ff#'\	.
4E\ 4F#\ 4A#\ 4c#\	8aa#'\	.
.	8ccc#'\J	.
4BBB^/ 4BB^/	2bb^\	.
4D\ 4F#\ 4B\	.	.
=82	=82	=82
4BBB^/ 4BB^/	4r	.
.	(gg#q/LL	.
.	aanq/	.
.	aa#q/JJ	.
4D'\ 4E#'\ 4G#'\ 4B'\	4dd'\ 4bb'\)	f
2r	2r	.
=83	=83	=83
4BBB^/ 4BB^/	4r	.
.	(gg#q/LL	.
.	aanq/	.
.	aa#q/JJ	.
4D'\ 4E#'\ 4G#'\ 4B'\	4dd'\ 4bb'\)	.
2r	2r	.
=84	=84	=84
4BBB^/ 4BB^/	4r	.
.	(gg#q/LL	.
.	aanq/	.
.	aa#q/JJ	.
4D'\ 4E#'\ 4G#'\ 4B'\	4dd'\ 4bb'\)	pp
.	(gg#q/LL	.
.	aanq/	.
.	aa#q/JJ	.
4D'\ 4E#'\ 4G#'\ 4B'\	4dd'\ 4bb'\)	.
.	(gg#q/LL	.
.	aanq/	.
.	aa#q/JJ	.
4D'\ 4E#'\ 4G#'\ 4B'\	4dd'\ 4bb'\)	.
=85	=85	=85
.	(gg#q/LL	.
.	aanq/	.
.	aa#q/JJ	.
4D'\ 4E#'\ 4G#'\ 4B'\	4dd'\ 4bb'\)	<
.	(gg#q/LL	.
.	aanq/	.
.	aa#q/JJ	.
4D'\ 4E#'\ 4G#'\ 4B'\	4dd'\ 4bb'\)	.
.	(gg#q/LL	.
.	aanq/	.
.	aa#q/JJ	.
4D'\ 4E#'\ 4G#'\ 4B'\	4dd'\ 4bb'\)	.
.	(gg#q/LL	.
.	aanq/	.
.	aa#q/JJ	.
4D'\ 4E#'\ 4G#'\ 4B'\	4dd'\ 4bb'\)	.
=86	=86	=86
2r	1r	.
16BBB/LL	.	.
16BB/	.	.
16BBB/	.	.
16BB/JJ	.	.
16BBB/LL	.	.
16BB/	.	.
16BBB/	.	.
16BB/JJ	.	.
=87	=87	=87
16BBB/LL	1r	.
16BB/	.	.
16BBB/	.	.
16BB/JJ	.	.
16BBB/LL	.	.
16BB/	.	.
16BBB/	.	.
16BB/JJ	.	.
16BBB/LL	.	.
16BB/	.	.
16BBB/	.	.
16BB/JJ	.	.
16BBB/LL	.	.
16BB/	.	.
16BBB/	.	.
16BB/JJ	.	.
=88	=88	=88
4BBBB/ 4BBB/	4r	.
.	(gg#q/LL	.
.	aanq/	.
.	aa#q/JJ	.
4BB'\ 4D'\ 4F#'\ 4B'\	4dd'\ 4bb'\)	ff
2r	2r	.
==	==	==
*-	*-	*-
